X: 42751
T: White House, The
R: mazurka
M: 3/4
K: Amajor
ED|CE c2 A2|GB e3 f|ge de dB|ce BA FA|
CE c2 A2|GB e3 f|ge de dB|1 A4 ED:|2 A3a ga||
b2 ge dB|GB e3 c|d2 df ec|d2 df ea|
b2 ge dB|GB e3 c|d2 df ec|1 A3 a ga:|2 A6||

